!!!OTL: HIER STEHEN WIR AUF UNSERN KRUECKEN
!!!ARE: Europa, Mitteleuropa, Deutschland; France, Elsass
!!!SCT: E0334
!!!YEM: Copyright 1995, estate of Helmut Schaffrath.
**kern
*ICvox
*Ivox
*M4/4
*k[b-e-]
*B-:
{8ff
8dd
8ff
=1
2b-
8r
8bb-
8bb-
8ccc
=2
4bb-
4gg
8r}
{8bb-
8aa
8gg
=3
4ff
8dd
8gg
8ff
8ee-
8cc
8ee-
=4
4ee-
4dd
8r}
{8ff
8cc
8dd
=5
8ee-
8aa
4.aa
8cc
8ee-
8gg
=6
4gg
4ff
8r}
{8ff
8cc
8dd
=7
8ee-
8aa
4.aa
8cc
8ee-
8gg
=8
4gg
4ff
8r}
{8bb-
8aa
8gg
=9
4.ff
8ee-
4dd
4cc
=10
8ff
8ee-
4dd
8r}
{8bb-
8aa
8gg
=11
4.ff
8ee-
4dd
4cc
=12
2b-
8r}
==
!!!AGN: historisches Lied, Krieg, Invalieden; Tod Friedrich II (1786)
!!!ONB: ESAC (Essen Associative Code) Database: ERK1
!!!AMT: simple quadruple
!!!AIN: vox
!!!EED: Helmut Schaffrath
!!!EEV: 1.0
*-
